src/assets/img/icons/duotone-icons/Cooking/Bowl.svg

<?xml version="1.0" encoding="UTF-8"?>
<svg width="24px" height="24px" viewBox="0 0 24 24" version="1.1" xmlns="http://www.w3.org/2000/svg" xmlns:xlink="http://www.w3.org/1999/xlink">
    <!-- Generator: Sketch 52.2 (67145) - http://www.bohemiancoding.com/sketch -->
    <title>Stockholm-icons / Cooking / Bowl</title>
    <desc>Created with Sketch.</desc>
    <g id="Stockholm-icons-/-Cooking-/-Bowl" stroke="none" stroke-width="1" fill="none" fill-rule="evenodd">
        <rect id="bound" x="0" y="0" width="24" height="24"></rect>
        <path d="M8,17 L16,17 L16,19 C16,19.5522847 15.5522847,20 15,20 L9,20 C8.44771525,20 8,19.5522847 8,19 L8,17 Z" id="Rectangle" fill="#335EEA" opacity="0.3"></path>
        <path d="M2,7 L22,7 L22,8 C22,13.5228475 17.5228475,18 12,18 C6.4771525,18 2,13.5228475 2,8 L2,7 Z M17.580855,9.6060807 C16.6710056,11.7290625 15.3334408,13.2152456 13.5527864,14.1055728 C13.0588079,14.3525621 12.8585836,14.9532351 13.1055728,15.4472136 C13.3525621,15.9411921 13.9532351,16.1414164 14.4472136,15.8944272 C16.6665592,14.7847544 18.3289944,12.9376042 19.419145,10.3939193 C19.6367007,9.88628952 19.4015491,9.29841059 18.8939193,9.08085497 C18.3862895,8.86329935 17.7984106,9.09845092 17.580855,9.6060807 Z" id="Combined-Shape" fill="#335EEA"></path>
    </g>
</svg>

<svg width="24" height="24" viewBox="0 0 24 24" xmlns="http://www.w3.org/2000/svg"><g fill="none" fill-rule="evenodd"><path d="M0 0h24v24H0z"/><path d="M8 17h8v2a1 1 0 01-1 1H9a1 1 0 01-1-1v-2z" fill="#335EEA" opacity=".3"/><path d="M2 7h20v1c0 5.523-4.477 10-10 10S2 13.523 2 8V7zm15.58 2.606c-.909 2.123-2.247 3.61-4.027 4.5a1 1 0 00.894 1.788c2.22-1.11 3.882-2.956 4.972-5.5a1 1 0 10-1.838-.788z" fill="#335EEA"/></g></svg>
